X:1
T:In medio Ecclesiae - Briccio
T:#
%%score [ 1 2 3 ]
L:1/8
Q:1/4=200
M:none
K:F
V:1 treble nm="Soprano" snm="S"
V:2 treble nm="Alto" snm="A"
V:3 treble-8 nm="Tenor" snm="T"
V:1
"^In medio Ecclesiae" G8 d6 e2 | f4 d4 _e4 e4 | d12 B4 | A3 A d4 c4 (d3 c | B4 A2 G2 A8) | %5
w: In me- di-|o Ec- cle- si-|ae a-|pe- ru- it os e\- *||
"^Giovanni Briccio\n(1579-1645)" B8 z8 |[M:4/2] z4 G4 c6 d2 | _e4 d4 e4 e4 | d4 G4 d6 =e2 | %9
w: ius,|in me- di-|o Ec- cle- si-|ae, in me- di-|
 f4 d4 (f6 ed | e4) e4 (A6 GA) | B4 G4 F3 F B4 | A4 d8 c4 | z4 d4 c3 c f4 | e4 (c8 B4 | A8) G8 | %16
w: o Ec- cle\- * *|* si- ae * *|* a- pe- ru- it|os e- ius,|a- pe- ru- it|os e\- *|* ius,|
 z4 f8 f4 | e4 c4 d4 G4 | (c2 B2 B2 AG A4) A4 | G8 z4 d4- | d4 d4 c6 A2 | B4 B4 A6 A2 | B8 G6 A2 | %23
w: et im-|ple- vit e- um|Do\- * * * * * mi-|nus, et|* im- ple- vit|e- um Do- mi-|nus spi- ri-|
 B4 B6 c2 d4 | c4 B4 c6 c2 | B16 | A8 B4 c4 | (d8 c8 | B16) | A4 A4 d4 e4 | f8 e8 | d8 z8 | %32
w: tu, spi- ri- tu|sa- pi- en- ti-|ae|et in- te-|le\- *||ctus, et in- tel-|le\- *|ctus:|
 A12 D4 | B6 B2 A4 d4- | d2 c2 B4 (G2 A2 B2 c2 | d2 e2 f4) d4 d4- | d2 d2 c4 B8 | A8 z4 d4- | %38
w: sto- lam|glo- ri- ae in\-|* du- it e\- * * *|* * * um, in\-|* du- it e-|um, sto\-|
 d4 G4 _e6 e2 | (d6 cB c4) f4- | f2 e2 d4[Q:1/4=196] B8 | %41
w: * lam glo- ri-|ae * * * in\-|* du- it e-|
[Q:1/4=192] c4[Q:1/4=188] _e6[Q:1/4=185] d2[Q:1/4=182] (c4- | %42
w: um, in- du- it|
[Q:1/4=179] c4[Q:1/4=177] B4)[Q:1/4=172] A8 |[Q:1/4=170] G16 |] %44
w: * * e-|um.|
V:2
 z16 | D8 G6 A2 | B4 G4 (B6 AG | F2 E2 F2 G2 A2 F2 A4- | A2 G2 G8) ^F4 | G4 G4 =F3 F B4 | %6
w: |In me- di-|o Ec- cle\- * *||* * * si-|ae a- pe- ru- it|
[M:4/2] G4 (B6 A2 A2 GA | B8) G4 z2 C2 | G6 A2 B4 G4 | (A2 G2 F2 ED A6) A2 | A,8 z4 D4 | %11
w: os e\- * * * *|* ius, in|me- di- o Ec-|cle\- * * * * * si-|ae, in|
 G6 A2 B4 B,4 | D4 B,4 G,4 G4 | F3 F B4 A8 | (c2 B2 A2 G2 ^F4 G4 | D8) G8 | z8 A8- | A4 A4 G4 E4 | %18
w: me- di- o Ec-|cle- si- ae a-|pe- ru- it os|e\- * * * * *|* ius,|et|* im- ple- vit|
 ^F2 F2 G8 F4 | G4 B8 B4 | A4 F4 G4 A4- | A4 G8 ^F4 | G4 G6 A2 B4 | B,6 C2 D4 F2 G2 | (A4 G8) ^F4 | %25
w: e- um Do- mi-|nus, et im-|ple- vit e- um|* Do- mi-|nus spi- ri- tu,|spi- ri- tu sa- pi-|en\- * ti-|
 G4 G,4 D4 E4 | (F8 _E8) | (D4 G8 ^F4) | G8 G,8 | D6 E2 F4 E4 | z4 D4 G4 A4 | (B6 A2 G2 F2 G4- | %32
w: ae et in- tel-|le\- *||ctus, et|in- tel- le- ctus,|et in- tel-|le\- * * * *|
 G4 F2 E2 D2 C2 B,4-) | B,4 G,4 D8 | G,8 _E6 E2 | D4 A3 G F4 (B2 A2 | G2 F2 G4 ^F4 G4- | %37
w: |* ctus: sto-|lam glo- ri-|ae in du- it e\- *||
 G4 ^F4) G8 | z8 G6 A2 | B4 B8 A4- | A4 B6 A2 G4- | G4 (c6 B2 A2 G2 | ^F4 G8 F4) | G16 |] %44
w: * * um,|in- du-|it e- um,|* in- du- it|* e\- * * *||um.|
V:3
 z16 | z16 | z8 G8 | d6 e2 f4 d4 | _e6 e2 (d8 | G8) d4 B3 B |[M:4/2][K:treble-8] _e6 d2 (c8 | %7
w: ||In|me- di- o Ec-|cle- si- ae|* a- pe- ru-|it os e\-|
 g8) c8 | z8 G8 | F3 F B4 A4 (d4- | d4 ^c4) d8 | z4 G4 d6 e2 | f4 d4 _e6 e2 | d8 z4 d4 | %14
w: * ius,|a-|pe- ru- it os e\-|* * ius,|in me- di-|o Ec- cle- si-|ae a-|
 c3 c f4 d4 (g4- | g4 ^f4) g8 | d12 d4 | c4 A4 =B4 c4 | A4 G4 d8 | z4 g8 g4 | f4 d4 e4 f4 | %21
w: pe- ru- it os e\-|* * ius,|et im-|ple vit e- um|Do- mi- nus,|et im-|ple- vit e- um|
 (g8 d6) d2 | G8 z8 | G6 A2 B8 | F4 G4 A6 A2 | G12 z4 | z4 D4 G4 A4 | B8 A8 | z4 G4 d4 e4 | %29
w: Do\- * mi-|nus|spi- ri- tu|sa- pi- en- ti-|ae|et in- tel-|le- ctus,|et in- tel-|
 (f6 e2 d4 ^c4) | d8 =c8 | G8 _e6 e2 | d8 f6 =e2 | d4 (g8 ^f4) | g8 z8 | z4 d8 G4 | _e6 e2 d8 | %37
w: le\- * * *|ctus: sto-|lam glo- ri-|ae in- du-|it e\- *|um,|sto- lam|glo- ri- ae|
 d6 c2 B4 (G2 A2) | (B2 G2 _e2 d2 c2 B2 c4) | B8 f6 =e2 | d8 _e6 d2 | c16 | d16 | G16 |] %44
w: in- du- it e\- *||um, in- du-|it, in- du-|it|e-|um.|

